X: 25111
T: Mairead's Paradise
R: reel
M: 4/4
K: Gmajor
|:~G2 BG EGDG|Bded edBA|~G2 BG EGDG|EDEF A2 BA|
~G2 BG EGDG|Bded edef|~g3 d Bded|ABBA ~G3 B:|
|:cBAG FADA|FADF A3 B|cBAG FADG|FGAB cdef|
~g3 d egdB|cBcd edef|~g3 d Bded|ABBA G2 BA:|

